build/img/0-common/facebook.svg

<svg width="25" height="25" viewBox="0 0 25 25" fill="none" xmlns="http://www.w3.org/2000/svg">
<path d="M25 12.5C25 5.5957 19.4043 0 12.5 0C5.5957 0 0 5.5957 0 12.5C0 19.4043 5.5957 25 12.5 25C12.5732 25 12.6465 25 12.7197 24.9951V15.2686H10.0342V12.1387H12.7197V9.83398C12.7197 7.16309 14.3506 5.70801 16.7334 5.70801C17.876 5.70801 18.8574 5.79102 19.1406 5.83008V8.62305H17.5C16.2061 8.62305 15.9521 9.23828 15.9521 10.1416V12.1338H19.0527L18.6475 15.2637H15.9521V24.5166C21.1768 23.0176 25 18.208 25 12.5Z" fill="#333333"/>
</svg>

<svg width="25" height="25" fill="none" xmlns="http://www.w3.org/2000/svg"><path d="M25 12.5C25 5.596 19.404 0 12.5 0S0 5.596 0 12.5 5.596 25 12.5 25c.073 0 .146 0 .22-.005V15.27h-2.686v-3.13h2.686V9.834c0-2.67 1.63-4.126 4.013-4.126 1.143 0 2.124.083 2.408.122v2.793H17.5c-1.294 0-1.548.615-1.548 1.519v1.992h3.1l-.404 3.13h-2.696v9.253C21.177 23.017 25 18.208 25 12.5z" fill="#333"/></svg>
